static/images/icon-facebook.svg

<svg fill="none" viewBox="0 0 9 19" xmlns="http://www.w3.org/2000/svg"><path clip-rule="evenodd" d="m8.85983 5.83059h-3.01624v-1.86883c0-.70131.49189-.86539.83818-.86539h2.12888v-3.0853651l-2.93164-.0110049c-3.25628 0-3.99706 2.30202-3.99706 3.77468v2.05591h-1.88195v3.18041h1.88195v8.997h3.96164v-8.997h2.66996z" fill-rule="evenodd"/></svg>

<svg viewBox="0 0 9 19" fill="none" xmlns="http://www.w3.org/2000/svg">
<path fill-rule="evenodd" clip-rule="evenodd" d="M8.85983 5.83059H5.84359V3.96176C5.84359 3.26045 6.33548 3.09637 6.68177 3.09637H8.81065V0.0110049L5.87901 0C2.62273 0 1.88195 2.30202 1.88195 3.77468V5.83059H0V9.011H1.88195V18.008H5.84359V9.011H8.51355L8.85983 5.83059Z" />
</svg>
